packages/icons/src/__generated__/nav/svg/nav-rosettaProduct-16-inactive.svg

<svg xmlns="http://www.w3.org/2000/svg" fill="#1652F0" viewBox="0 0 16 16"><path d="M13.989 3.995a3 3 0 1 1-6 0 3 3 0 0 1 6 0Zm-13 9h6v-11h-6v11Zm12.361-5-5.361 1.64 1.639 5.36 5.36-1.639-1.638-5.36Z"/></svg>

<svg xmlns="http://www.w3.org/2000/svg" fill="#1652F0" viewBox="0 0 16 16"><path d="M14 4a3 3 0 1 1-6 0 3 3 0 0 1 6 0ZM1 13h6V2H1v11Zm1.6-9.4h2.8v7.8H2.6V3.6ZM13.361 8 8 9.639 9.639 15 15 13.361 13.361 8Z"/></svg>
